03/images/icon-firstview-info-qiita.svg

<svg fill="none" height="50" viewBox="0 0 50 50" width="50" xmlns="http://www.w3.org/2000/svg"><g fill="#333"><path d="m37.2491 20.873-2.3657-.4721c-.0763-.3401-.1624-.6566-.2512-.9454l2.4461.0805.0181-.5553-2.6517-.0874c-.0666-.1861-.1305-.3513-.1888-.4929l2.6905-.9232.0334-.6164-2.9488 1.0287c-.0236-.0486-.0374-.0749-.0374-.0749-4.1094-7.4329-11.5423-5.6323-11.5423-5.6323s-6.325.9565-8.0437 7.9243l-2.9779-.5608v.5345l2.8557.5692c-.0347.1679-.0653.3401-.0944.5136l-2.56.2555.0555.5525 2.4226-.2416c-.0042.0347-.0097.0667-.0139.1014-.0278.2291-.0472.4498-.0611.6678l-2.2518.8982-.0111.515 2.2379-.8066c-.0972 7.2594 7.1955 7.2205 7.1955 7.2205 8.9101.093 11.6339-2.5392 11.6339-2.5392 2.349-1.9783 2.5128-4.6979 2.1574-6.7984l2.249.4262v-.5414z"/><path d="m36.9965 37.7601c-4.3856 5.2172-20.3134 6.9706-25.9457-1.6618-5.63231-8.6324.093-18.6975.093-18.6975l-.969-3.9247c-.41513-1.9852 1.3855-1.5701 1.3855-1.5701l3.6012.7844c7.3399-5.95581 15.4197-2.1699 15.4197-2.1699l3.5082-2.12413c1.5702-.55392 1.616.96903 1.616.96903l.2305 5.0325c7.4787 8.3103 4.5244 17.2662 4.5244 17.2662-.8774 1.7548-.2777 2.5392-.2777 2.5392l1.2925 1.5229c.8316.8774 1.8465.4623 1.8465.4623 1.8922-.4623 3.4165.4151 3.4165.4151s.118.0514.3082.1347c1.8701-3.5013 2.9321-7.5009 2.9321-11.7491 0-13.801-11.1882-24.9892-24.9892-24.9892s-24.9892 11.1882-24.9892 24.9892 11.1882 24.9892 24.9892 24.9892c7.1094 0 13.5247-2.9695 18.0755-7.7341l-.2971-.1208c-3.9705-.9927-5.7711-4.3634-5.7711-4.3634z"/></g></svg>

<svg width="50" height="50" viewBox="0 0 50 50" fill="none" xmlns="http://www.w3.org/2000/svg">
<path d="M37.2491 20.8728L34.8834 20.4008C34.8071 20.0607 34.721 19.7442 34.6322 19.4554L37.0783 19.5359L37.0964 18.9806L34.4447 18.8931C34.3781 18.7071 34.3142 18.5419 34.2559 18.4003L36.9464 17.4771L36.9798 16.8607L34.031 17.8894C34.0074 17.8408 33.9936 17.8144 33.9936 17.8144C29.8842 10.3815 22.4513 12.1822 22.4513 12.1822C22.4513 12.1822 16.1263 13.1387 14.4076 20.1065L11.4297 19.5456V20.0801L14.2854 20.6493C14.2507 20.8173 14.2201 20.9895 14.191 21.163L11.631 21.4184L11.6865 21.971L14.1091 21.7294C14.1049 21.7641 14.0994 21.7961 14.0952 21.8308C14.0674 22.0598 14.048 22.2806 14.0341 22.4985L11.7823 23.3968L11.7712 23.9118L14.0091 23.1052C13.9119 30.3646 21.2046 30.3257 21.2046 30.3257C30.1147 30.4187 32.8385 27.7865 32.8385 27.7865C35.1875 25.8082 35.3513 23.0886 34.9959 20.9881L37.2449 21.4143V20.8728H37.2491Z" fill="white"/>
<path d="M36.9965 37.7601C32.6109 42.9773 16.6831 44.7307 11.0508 36.0983C5.41849 27.4659 11.1438 17.4008 11.1438 17.4008L10.1748 13.4761C9.75967 11.4909 11.5603 11.906 11.5603 11.906L15.1615 12.6904C22.5014 6.73459 30.5812 10.5205 30.5812 10.5205L34.0894 8.39637C35.6596 7.84245 35.7054 9.3654 35.7054 9.3654L35.9359 14.3979C43.4146 22.7082 40.4603 31.6641 40.4603 31.6641C39.5829 33.4189 40.1826 34.2033 40.1826 34.2033L41.4751 35.7262C42.3067 36.6036 43.3216 36.1885 43.3216 36.1885C45.2138 35.7262 46.7381 36.6036 46.7381 36.6036C46.7381 36.6036 46.8561 36.655 47.0463 36.7383C48.9164 33.237 49.9784 29.2374 49.9784 24.9892C49.9784 11.1882 38.7902 0 24.9892 0C11.1882 0 0 11.1882 0 24.9892C0 38.7902 11.1882 49.9784 24.9892 49.9784C32.0986 49.9784 38.5139 47.0089 43.0647 42.2443L42.7676 42.1235C38.7971 41.1308 36.9965 37.7601 36.9965 37.7601Z" fill="white"/>
</svg>
